Quickit/src/img/icons/list.svg

<svg width="14" height="17" viewBox="0 0 14 17" fill="none" xmlns="http://www.w3.org/2000/svg">
<path fill-rule="evenodd" clip-rule="evenodd" d="M5.83333 1.66667C5.3731 1.66667 5 2.03976 5 2.5C5 2.96024 5.3731 3.33333 5.83333 3.33333H7.5C7.96024 3.33333 8.33333 2.96024 8.33333 2.5C8.33333 2.03976 7.96024 1.66667 7.5 1.66667H5.83333ZM3.47559 1.66667C3.81879 0.695673 4.74482 0 5.83333 0H7.5C8.58851 0 9.51455 0.695673 9.85774 1.66667H10.8333C11.4964 1.66667 12.1323 1.93006 12.6011 2.3989C13.0699 2.86774 13.3333 3.50363 13.3333 4.16667V14.1667C13.3333 14.8297 13.0699 15.4656 12.6011 15.9344C12.1323 16.4033 11.4964 16.6667 10.8333 16.6667H2.5C1.83696 16.6667 1.20107 16.4033 0.732233 15.9344C0.263392 15.4656 0 14.8297 0 14.1667V4.16667C0 3.50363 0.263392 2.86774 0.732233 2.3989C1.20107 1.93006 1.83696 1.66667 2.5 1.66667H3.47559ZM3.47559 3.33333H2.5C2.27899 3.33333 2.06702 3.42113 1.91074 3.57741C1.75446 3.73369 1.66667 3.94565 1.66667 4.16667V14.1667C1.66667 14.3877 1.75446 14.5996 1.91074 14.7559C2.06702 14.9122 2.27899 15 2.5 15H10.8333C11.0543 15 11.2663 14.9122 11.4226 14.7559C11.5789 14.5996 11.6667 14.3877 11.6667 14.1667V4.16667C11.6667 3.94565 11.5789 3.73369 11.4226 3.57741C11.2663 3.42113 11.0543 3.33333 10.8333 3.33333H9.85774C9.51455 4.30433 8.58852 5 7.5 5H5.83333C4.74482 5 3.81879 4.30433 3.47559 3.33333ZM4.16667 7.5C4.6269 7.5 5 7.8731 5 8.33333V12.5C5 12.9602 4.6269 13.3333 4.16667 13.3333C3.70643 13.3333 3.33333 12.9602 3.33333 12.5V8.33333C3.33333 7.8731 3.70643 7.5 4.16667 7.5ZM9.16667 9.16667C9.6269 9.16667 10 9.53976 10 10V12.5C10 12.9602 9.6269 13.3333 9.16667 13.3333C8.70643 13.3333 8.33333 12.9602 8.33333 12.5V10C8.33333 9.53976 8.70643 9.16667 9.16667 9.16667ZM6.66667 10.8333C7.1269 10.8333 7.5 11.2064 7.5 11.6667V12.5C7.5 12.9602 7.1269 13.3333 6.66667 13.3333C6.20643 13.3333 5.83333 12.9602 5.83333 12.5V11.6667C5.83333 11.2064 6.20643 10.8333 6.66667 10.8333Z" fill="white"/>
</svg>

<svg xmlns="http://www.w3.org/2000/svg" width="14" height="17" fill="none" xmlns:v="https://vecta.io/nano"><path fill-rule="evenodd" d="M5.833 1.667c-.46 0-.833.373-.833.833s.373.833.833.833H7.5c.46 0 .833-.373.833-.833s-.373-.833-.833-.833H5.833zm-2.358 0A2.5 2.5 0 0 1 5.833 0H7.5a2.5 2.5 0 0 1 2.358 1.667h.976a2.5 2.5 0 0 1 2.5 2.5v10a2.5 2.5 0 0 1-2.5 2.5H2.5a2.5 2.5 0 0 1-2.5-2.5v-10a2.5 2.5 0 0 1 2.5-2.5h.976zm0 1.667H2.5c-.221 0-.433.088-.589.244s-.244.368-.244.589v10c0 .221.088.433.244.589S2.279 15 2.5 15h8.333c.221 0 .433-.088.589-.244s.244-.368.244-.589v-10c0-.221-.088-.433-.244-.589s-.368-.244-.589-.244h-.976A2.5 2.5 0 0 1 7.5 5H5.833a2.5 2.5 0 0 1-2.358-1.667zM4.167 7.5c.46 0 .833.373.833.833V12.5c0 .46-.373.833-.833.833s-.833-.373-.833-.833V8.333c0-.46.373-.833.833-.833zm5 1.667c.46 0 .833.373.833.833v2.5c0 .46-.373.833-.833.833s-.833-.373-.833-.833V10c0-.46.373-.833.833-.833zm-2.5 1.667c.46 0 .833.373.833.833v.833c0 .46-.373.833-.833.833s-.833-.373-.833-.833v-.833c0-.46.373-.833.833-.833z" fill="#fff"/></svg>
